src/assets/icons/google/phone-call-button.svg

<?xml version="1.0" encoding="iso-8859-1"?>
<!-- Generator: Adobe Illustrator 16.0.0, SVG Export Plug-In . SVG Version: 6.00 Build 0)  -->
<!DOCTYPE svg PUBLIC "-//W3C//DTD SVG 1.1//EN" "http://www.w3.org/Graphics/SVG/1.1/DTD/svg11.dtd">
<svg version="1.1" id="Capa_1" xmlns="http://www.w3.org/2000/svg" xmlns:xlink="http://www.w3.org/1999/xlink" x="0px" y="0px"
	 width="459px" height="459px" viewBox="0 0 459 459" style="enable-background:new 0 0 459 459;" xml:space="preserve">
<g>
	<g id="call">
		<path d="M91.8,198.9c35.7,71.4,96.9,130.05,168.3,168.3L316.2,311.1c7.649-7.649,17.85-10.199,25.5-5.1
			c28.05,10.2,58.649,15.3,91.8,15.3c15.3,0,25.5,10.2,25.5,25.5v86.7c0,15.3-10.2,25.5-25.5,25.5C193.8,459,0,265.2,0,25.5
			C0,10.2,10.2,0,25.5,0h89.25c15.3,0,25.5,10.2,25.5,25.5c0,30.6,5.1,61.2,15.3,91.8c2.55,7.65,0,17.85-5.1,25.5L91.8,198.9z"/>
	</g>
</g>
<g>
</g>
<g>
</g>
<g>
</g>
<g>
</g>
<g>
</g>
<g>
</g>
<g>
</g>
<g>
</g>
<g>
</g>
<g>
</g>
<g>
</g>
<g>
</g>
<g>
</g>
<g>
</g>
<g>
</g>
</svg>

<svg xmlns="http://www.w3.org/2000/svg" viewBox="0 0 459 459">
  <path d="M91.8,198.9 C127.5,270.3 188.7,328.95 260.1,367.2 L316.2,311.1 C323.849,303.451 334.05,300.901 341.7,306 C369.75,316.2 400.349,321.3 433.5,321.3 C448.8,321.3 459,331.5 459,346.8 L459,433.5 C459,448.8 448.8,459 433.5,459 C193.8,459 0,265.2 0,25.5 C0,10.2 10.2,0 25.5,0 L114.75,0 C130.05,0 140.25,10.2 140.25,25.5 C140.25,56.1 145.35,86.7 155.55,117.3 C158.1,124.95 155.55,135.15 150.45,142.8 L91.8,198.9 Z"/>
</svg>
